X:3493
L:1/8
M:2/2
K:Bb
 (3fga | b>ab>f d>FB>d | c>BA>c B>df>b | g>ec>g f>dB>d | c>f=e>c' f>^fg>a | b>ab>f d>FB>d | 
 c>BA>B c>de>f | g>ec>g f>ec>f | B2{a} b2 B2 :| (3Bc^c | d>BG>B d>BG>B | c>BA>B (3GD^F (3GAB | 
 c>A=F>A c>AF>A | G>F=E>G (3FDF (3^FGA | B>GD>G B>GD>G | B>cA>B (3G^FG (3AB=B | c>A=F>A c>ed>c | 
 B2 b2 B2 :|

